img/quotes.svg

<svg width="30" height="30" viewBox="0 0 30 30" fill="none" xmlns="http://www.w3.org/2000/svg">
<circle cx="15" cy="15" r="15" fill="#F35A05"/>
<path d="M10.6391 14.5459C11.3115 14.6287 11.8587 14.9184 12.2806 15.4151C12.7025 15.8979 12.9135 16.4704 12.9135 17.1326C12.9135 18.0707 12.5443 18.9054 11.8059 19.6366C11.0808 20.3677 10.2765 20.7333 9.39308 20.7333C8.64153 20.7333 8.0548 20.4574 7.63288 19.9056C7.21096 19.3538 7 18.5812 7 17.5879C7 16.0152 7.66584 14.1941 8.99753 12.1248C10.3424 10.0416 11.4961 9 12.4586 9C12.775 9 13.0585 9.12416 13.309 9.37249C13.5595 9.60702 13.6848 9.87603 13.6848 10.1795C13.6848 10.5796 13.5991 10.9107 13.4277 11.1728C13.2563 11.4212 12.8937 11.7523 12.3399 12.1661C11.5356 12.7732 10.9687 13.5664 10.6391 14.5459ZM19.9543 14.5459C20.6267 14.6287 21.1739 14.9184 21.5958 15.4151C22.0177 15.8979 22.2287 16.4704 22.2287 17.1326C22.2287 18.0707 21.8595 18.9054 21.1211 19.6366C20.396 20.3677 19.5917 20.7333 18.7083 20.7333C17.9567 20.7333 17.37 20.4574 16.9481 19.9056C16.5262 19.3538 16.3152 18.5812 16.3152 17.5879C16.3152 16.7463 16.5657 15.6979 17.0667 14.4424C17.581 13.1732 18.3193 11.9523 19.2818 10.7797C20.2575 9.59322 21.0882 9 21.7738 9C22.0902 9 22.3737 9.12416 22.6242 9.37249C22.8747 9.60702 23 9.87603 23 10.1795C23 10.6348 22.8945 10.9935 22.6836 11.2556C22.4726 11.5039 22.1298 11.8074 21.6551 12.1661C20.8508 12.7732 20.2839 13.5664 19.9543 14.5459Z" fill="white"/>
</svg>

<svg xmlns="http://www.w3.org/2000/svg" width="30" height="30" fill="none"><circle cx="15" cy="15" r="15" fill="#F35A05"/><path fill="#fff" d="M10.64 14.546c.671.083 1.219.372 1.64.87.423.482.634 1.054.634 1.717 0 .938-.37 1.772-1.108 2.504-.725.73-1.53 1.096-2.413 1.096-.751 0-1.338-.276-1.76-.827C7.21 19.354 7 18.58 7 17.588c0-1.573.666-3.394 1.998-5.463C10.342 10.042 11.496 9 12.458 9c.317 0 .6.124.851.372.25.235.376.504.376.808 0 .4-.086.73-.257.993-.172.248-.534.58-1.088.993a4.845 4.845 0 0 0-1.7 2.38Zm9.314 0c.673.083 1.22.372 1.642.87.422.482.633 1.054.633 1.717 0 .938-.37 1.772-1.108 2.504-.725.73-1.53 1.096-2.413 1.096-.751 0-1.338-.276-1.76-.827-.422-.552-.633-1.325-.633-2.318 0-.842.25-1.89.752-3.146.514-1.269 1.252-2.49 2.215-3.662C20.258 9.593 21.088 9 21.774 9c.316 0 .6.124.85.372.25.235.376.504.376.808 0 .455-.105.813-.316 1.076-.211.248-.554.551-1.029.91a4.845 4.845 0 0 0-1.7 2.38Z"/></svg>
